X: 1
T:The Elks Festival  "CYMRU"
M:C
L:1/8
Q:80
C:
S:Hornpipe
K:HP
|: {g}f2|
{g}A2{GdGe}A3/2d/2{gfg}f3/2e/2{gde}d3/2c/2|
{g}B2{GdGe}A3/2d/2{gf}g3/2f/2{gef}e3/2d/2|  !
{g}c2{GdGe}c3/2e/2{ag}a3/2g/2{a}f3/2e/2|
{gfg}f3/2c/2{gde}d3/2B/2{g}A2{gfg}f2| |
{g}A2{GdGe}A3/2d/2{gfg}f3/2e/2{gde}d3/2c/2|  !
{g}B2{GdGe}A3/2d/2{gf}g2{ag}a3/2g/2|
{a}f3/2d/2{g}A3/2d/2{g}B3/2g/2{a}e3/2c/2|
{Gdc}d2{g}d2{gdc}d2:| |:  !
{gf}g2|
{ag}a2{fg}f3/2d/2{g}A3/2d/2{gfg}f3/2d/2|
{gf}g2{ef}e3/2c/2{g}A3/2c/2{gef}e3/2c/2|  !
{gfg}f3/2d/2{gf}g3/2e/2{ag}a3/2g/2{g}f3/2e/2|
{gfg}f3/2c/2{gde}d3/2B/2{g}A2{gf}g2| |
{ag}a2{fg}f3/2d/2{g}A3/2d/2{gfg}f3/2d/2|  !
{gf}g2{ef}e3/2c/2{g}A2{ag}a3/2g/2|
{a}f3/2d/2{g}A3/2d/2{g}B3/2g/2{a}e3/2c/2|
{Gdc}d2{g}d2{gdc}d2:|  !
